;Generated by Cura LulzBot Edition GCodeWriter Version: 3.2.32
;FLAVOR:Marlin
;TIME:2595
;Filament used: 1.87941m
;Layer height: 0.38
;Generated with Cura_SteamEngine 3.2.32
M82 ;absolute extrusion mode
;This G-Code has been generated specifically for the LulzBot TAZ 6 with standard extruder
M75 ; start GLCD timer
G26 ; clear potential 'probe fail' condition
G21 ; set units to Millimetres
M107 ; disable fans
M420 S0 ; disable previous leveling matrix
G90 ; absolute positioning
M82 ; set extruder to absolute mode
G92 E0 ; set extruder position to 0
M140 S90 ; start bed heating up
M109 R170 ; soften filament before homing Z
G28 ; Home all axis
G1 E-30 F100 ; retract filament
M109 R170 ; wait for extruder to reach wiping temp
G1 X-15 Y100 F3000 ; move above wiper pad
G1 Z1 ; push nozzle into wiper
G1 X-17 Y95 F1000 ; slow wipe
G1 X-17 Y90 F1000 ; slow wipe
G1 X-17 Y85 F1000 ; slow wipe
G1 X-15 Y90 F1000 ; slow wipe
G1 X-17 Y80 F1000 ; slow wipe
G1 X-15 Y95 F1000 ; slow wipe
G1 X-17 Y75 F2000 ; fast wipe
G1 X-15 Y65 F2000 ; fast wipe
G1 X-17 Y70 F2000 ; fast wipe
G1 X-15 Y60 F2000 ; fast wipe
G1 X-17 Y55 F2000 ; fast wipe
G1 X-15 Y50 F2000 ; fast wipe
G1 X-17 Y40 F2000 ; fast wipe
G1 X-15 Y45 F2000 ; fast wipe
G1 X-17 Y35 F2000 ; fast wipe
G1 X-15 Y40 F2000 ; fast wipe
G1 X-17 Y70 F2000 ; fast wipe
G1 X-15 Y30 Z2 F2000 ; fast wipe
G1 X-17 Y35 F2000 ; fast wipe
G1 X-15 Y25 F2000 ; fast wipe
G1 X-17 Y30 F2000 ; fast wipe
G1 X-15 Y25 Z1.5 F1000 ; slow wipe
G1 X-17 Y23 F1000 ; slow wipe
G1 Z10 ; raise extruder
M109 R170 ; wait for extruder to reach probe temp
G1 X-9 Y-9 ; move above first probe point
M204 S100 ; set probing acceleration
G29 ; start auto-leveling sequence
M420 S1 ; activate bed level matrix
M425 Z			     ; use measured Z backlash for compensation
M425 Z F0		     ; turn off measured Z backlash compensation. (if activated in the quality settings, this command will automatically be ignored)
M204 S500 ; restore standard acceleration
G1 X0 Y0 Z15 F5000 ; move up off last probe point
G4 S1 ; pause
M400 ; wait for moves to finish
M117 Heating... ; progress indicator message on LCD
M109 R235 ; wait for extruder to reach printing temp
M190 S90 ; wait for bed to reach printing temp
G1 Z2 E0 F75 ; prime tiny bit of filament into the nozzle
M117 TAZ 6 Printing... ; progress indicator message on LCD

M221 S100
;LAYER_COUNT:151
;LAYER:0
M107
G0 F3150 X118.07 Y117.842 Z0.425
;TYPE:SKIRT
G1 F900 X118.524 Y117.476 E0.01845
G1 X119.023 Y117.176 E0.03688
G1 X119.559 Y116.946 E0.05534
G1 X120.121 Y116.792 E0.07378
G1 X120.959 Y116.709 E0.10042
G1 X159.041 Y116.71 E1.30552
G1 X159.622 Y116.75 E1.32395
G1 X160.193 Y116.869 E1.34241
G1 X160.742 Y117.065 E1.36086
G1 X161.259 Y117.334 E1.3793
G1 X161.734 Y117.672 E1.39775
G1 X162.158 Y118.071 E1.41617
G1 X162.524 Y118.525 E1.43463
G1 X162.824 Y119.024 E1.45305
G1 X163.054 Y119.56 E1.47151
G1 X163.208 Y120.122 E1.48995
G1 X163.291 Y120.96 E1.5166
G1 X163.291 Y159.041 E2.72166
G1 X163.251 Y159.622 E2.74009
G1 X163.132 Y160.193 E2.75855
G1 X162.936 Y160.742 E2.777
G1 X162.667 Y161.258 E2.79541
G1 X162.329 Y161.734 E2.81389
G1 X161.93 Y162.158 E2.83231
G1 X161.476 Y162.524 E2.85076
G1 X160.977 Y162.824 E2.86919
G1 X160.441 Y163.054 E2.88765
G1 X159.879 Y163.208 E2.90609
G1 X159.041 Y163.291 E2.93273
G1 X140.005 Y163.29 E3.53512
G1 X139.423 Y163.25 E3.55359
G1 X138.853 Y163.131 E3.57201
G1 X138.304 Y162.935 E3.59046
G1 X137.787 Y162.666 E3.6089
G1 X137.312 Y162.328 E3.62735
G1 X136.698 Y161.71 E3.65492
G1 X133.181 Y157.354 E3.83208
G1 X129.542 Y153.337 E4.00361
G1 X125.676 Y149.529 E4.17533
G1 X121.602 Y145.943 E4.34708
G1 X118.308 Y143.314 E4.48044
G1 X117.878 Y142.92 E4.4989
G1 X117.507 Y142.471 E4.51733
G1 X117.2 Y141.975 E4.53579
G1 X116.964 Y141.442 E4.55424
G1 X116.803 Y140.882 E4.57267
G1 X116.721 Y140.305 E4.59112
G1 X116.709 Y139.992 E4.60103
G1 X116.709 Y120.959 E5.20332
G1 X116.749 Y120.378 E5.22175
G1 X116.868 Y119.807 E5.24021
G1 X117.064 Y119.258 E5.25866
G1 X117.333 Y118.742 E5.27707
G1 X117.671 Y118.266 E5.29555
G1 X118.07 Y117.842 E5.31397
G0 F3150 X118.56 Y118.077
G1 F900 X119.005 Y117.758 E5.3313
G1 X119.492 Y117.508 E5.34862
G1 X120.01 Y117.331 E5.36594
G1 X120.548 Y117.232 E5.38325
G1 X120.959 Y117.209 E5.39628
G1 X159.041 Y117.21 E6.60138
G1 X159.587 Y117.25 E6.6187
G1 X160.121 Y117.369 E6.63602
G1 X160.633 Y117.564 E6.65335
G1 X161.11 Y117.832 E6.67067
G1 X161.543 Y118.167 E6.68799
G1 X161.923 Y118.561 E6.70531
G1 X162.242 Y119.006 E6.72264
G1 X162.492 Y119.493 E6.73996
G1 X162.669 Y120.011 E6.75729
G1 X162.768 Y120.549 E6.7746
G1 X162.791 Y120.96 E6.78762
G1 X162.791 Y159.041 E7.99269
G1 X162.751 Y159.587 E8.01002
G1 X162.632 Y160.121 E8.02733
G1 X162.437 Y160.632 E8.04464
G1 X162.169 Y161.11 E8.06198
G1 X161.834 Y161.543 E8.0793
G1 X161.44 Y161.923 E8.09662
G1 X160.995 Y162.242 E8.11395
G1 X160.508 Y162.492 E8.13127
G1 X159.99 Y162.669 E8.1486
G1 X159.452 Y162.768 E8.16591
G1 X159.041 Y162.791 E8.17893
G1 X140.005 Y162.79 E8.78132
G1 X139.459 Y162.75 E8.79865
G1 X138.925 Y162.631 E8.81596
G1 X138.413 Y162.435 E8.83331
G1 X137.936 Y162.168 E8.85061
G1 X137.503 Y161.833 E8.86793
G1 X137.087 Y161.396 E8.88703
G1 X133.555 Y157.021 E9.06496
G1 X129.902 Y152.989 E9.23713
G1 X126.032 Y149.176 E9.40905
G1 X121.912 Y145.55 E9.58273
G1 X118.62 Y142.923 E9.71601
G1 X118.218 Y142.551 E9.73334
G1 X117.875 Y142.125 E9.75065
G1 X117.597 Y141.653 E9.76798
G1 X117.391 Y141.146 E9.7853
G1 X117.261 Y140.614 E9.80263
G1 X117.209 Y139.992 E9.82238
G1 X117.209 Y120.959 E10.42468
G1 X117.249 Y120.413 E10.442
G1 X117.368 Y119.879 E10.45931
G1 X117.563 Y119.368 E10.47662
G1 X117.831 Y118.89 E10.49396
G1 X118.166 Y118.457 E10.51129
G1 X118.56 Y118.077 E10.52861
G0 F3150 X118.659 Y118.663
G1 F900 X119.046 Y118.331 E10.54475
G1 X119.481 Y118.065 E10.56088
G1 X119.951 Y117.869 E10.577
G1 X120.446 Y117.75 E10.59311
G1 X120.959 Y117.709 E10.60939
G1 X159.041 Y117.71 E11.81449
G1 X159.549 Y117.75 E11.83062
G1 X160.044 Y117.869 E11.84673
G1 X160.515 Y118.064 E11.86286
G1 X160.95 Y118.33 E11.87899
G1 X161.337 Y118.66 E11.89509
G1 X161.669 Y119.047 E11.91122
G1 X161.935 Y119.482 E11.92736
G1 X162.131 Y119.952 E11.94347
G1 X162.25 Y120.447 E11.95958
G1 X162.291 Y120.96 E11.97587
G1 X162.291 Y159.041 E13.18094
G1 X162.251 Y159.549 E13.19706
G1 X162.132 Y160.044 E13.21317
G1 X161.937 Y160.515 E13.2293
G1 X161.671 Y160.95 E13.24544
G1 X161.341 Y161.337 E13.26153
G1 X160.954 Y161.669 E13.27767
G1 X160.519 Y161.935 E13.2938
G1 X160.049 Y162.131 E13.30992
G1 X159.554 Y162.25 E13.32603
G1 X159.041 Y162.291 E13.34231
G1 X140.005 Y162.29 E13.94471
G1 X139.497 Y162.25 E13.96083
G1 X139.001 Y162.131 E13.97697
G1 X138.531 Y161.936 E13.99308
G1 X138.096 Y161.67 E14.00921
G1 X137.708 Y161.34 E14.02533
G1 X137.476 Y161.082 E14.03631
G1 X133.936 Y156.697 E14.21465
G1 X130.261 Y152.641 E14.38785
G1 X126.369 Y148.807 E14.56073
G1 X122.232 Y145.166 E14.73513
G1 X118.932 Y142.532 E14.86874
G1 X118.56 Y142.184 E14.88486
G1 X118.246 Y141.782 E14.901
G1 X118 Y141.336 E14.91712
G1 X117.826 Y140.857 E14.93325
G1 X117.73 Y140.357 E14.94936
G1 X117.709 Y139.992 E14.96093
G1 X117.709 Y120.959 E15.56323
G1 X117.749 Y120.451 E15.57935
G1 X117.868 Y119.956 E15.59546
G1 X118.063 Y119.485 E15.61159
G1 X118.329 Y119.05 E15.62773
G1 X118.659 Y118.663 E15.64382
G1 F600 E14.64382
G0 F3150 X120.285 Y121.714
G0 X121.714 Y121.714
G0 X140.82 Y139.18
G0 X140.75 Y139.25
;TYPE:WALL-INNER
G1 F600 E15.64382
G1 F900 X121.7 Y139.25 E16.24666
G1 X121.7 Y121.7 E16.80202
G1 X158.3 Y121.7 E17.96023
G1 X158.3 Y158.3 E19.11843
G1 X140.75 Y158.3 E19.67379
G1 X140.75 Y139.25 E20.27663
G0 F3150 X140.25 Y139.75
;TYPE:WALL-OUTER
G1 F900 X121.2 Y139.75 E20.87946
G1 X121.2 Y121.2 E21.46647
G1 X158.8 Y121.2 E22.65632
G1 X158.8 Y158.8 E23.84617
G1 X140.25 Y158.8 E24.43318
G1 X140.25 Y139.75 E25.03601
G0 F3150 X140 Y139.75
G0 X140 Y139.15
G0 X141.24 Y138.76
;TYPE:SKIN
G1 F900 X122.19 Y138.76 E25.63885
G1 X122.19 Y122.19 E26.1632
G1 X157.81 Y122.19 E27.29039
G1 X157.81 Y157.81 E28.41758
G1 X141.24 Y157.81 E28.94193
G1 X141.24 Y138.76 E29.54477
G0 F3150 X142.028 Y157.584
G1 F900 X141.464 Y157.02 E29.57001
G0 F3150 X141.464 Y156.313
G1 F900 X142.735 Y157.584 E29.62689
G1 X142.823 Y157.672
G0 F3150 X143.442 Y157.584
G1 F900 X141.464 Y155.606 E29.71541
G1 X141.376 Y155.518
G0 F3150 X141.464 Y154.899
G1 F900 X144.149 Y157.584 E29.83557
G1 X144.237 Y157.672
G0 F3150 X144.856 Y157.584
G1 F900 X141.464 Y154.192 E29.98737
G1 X141.376 Y154.104
G0 F3150 X141.464 Y153.485
G1 F900 X145.563 Y157.584 E30.17081
G1 X145.651 Y157.672
G0 F3150 X146.27 Y157.584
G1 F900 X141.464 Y152.778 E30.38589
G1 X141.376 Y152.69
G0 F3150 X141.464 Y152.071
G1 F900 X146.977 Y157.584 E30.63261
G1 X147.065 Y157.672
G0 F3150 X147.684 Y157.584
G1 F900 X141.464 Y151.363 E30.911
G1 X141.376 Y151.275
G0 F3150 X141.464 Y150.656
G1 F900 X148.392 Y157.584 E31.22104
G1 X148.48 Y157.672
G0 F3150 X149.099 Y157.584
G1 F900 X141.464 Y149.949 E31.56273
G1 X141.376 Y149.861
G0 F3150 X141.464 Y149.242
G1 F900 X149.806 Y157.584 E31.93606
G1 X149.894 Y157.672
G0 F3150 X150.513 Y157.584
G1 F900 X141.464 Y148.535 E32.34102
G1 X141.376 Y148.447
G0 F3150 X141.463 Y147.827
G1 F900 X151.22 Y157.584 E32.77767
G1 X151.308 Y157.672
G0 F3150 X151.927 Y157.584
G1 F900 X141.463 Y147.12 E33.24596
G1 X141.375 Y147.032
G0 F3150 X141.463 Y146.413
G1 F900 X152.634 Y157.584 E33.74589
G1 X152.722 Y157.672
G0 F3150 X153.341 Y157.584
G1 F900 X141.463 Y145.706 E34.27746
G1 X141.375 Y145.618
G0 F3150 X141.463 Y144.999
G1 F900 X154.048 Y157.584 E34.84068
G1 X154.136 Y157.672
G0 F3150 X154.755 Y157.584
G1 F900 X141.463 Y144.292 E35.43553
G1 X141.375 Y144.204
G0 F3150 X141.463 Y143.585
G1 F900 X155.463 Y157.584 E36.06204
G1 X155.551 Y157.672
G0 F3150 X156.17 Y157.584
G1 F900 X141.463 Y142.877 E36.72022
G1 X141.375 Y142.789
G0 F3150 X141.463 Y142.17
G1 F900 X156.877 Y157.584 E37.41003
G1 X156.965 Y157.672
G0 F3150 X157.584 Y157.584
G1 F900 X141.463 Y141.463 E38.13149
G1 X141.375 Y141.375
G0 F3150 X141.463 Y140.756
G1 F900 X157.584 Y156.877 E38.85294
G1 X157.672 Y156.965
G0 F3150 X157.584 Y156.17
G1 F900 X141.463 Y140.049 E39.5744
G1 X141.375 Y139.961
G0 F3150 X141.463 Y139.342
G1 F900 X157.584 Y155.463 E40.29586
G1 X157.672 Y155.551
G0 F3150 X157.584 Y154.755
G1 F900 X141.463 Y138.635 E41.01729
G1 X141.375 Y138.547
G0 F3150 X141.362 Y138.534
G1 F900 X125.243 Y122.415 E41.73866
G1 X125.155 Y122.327
G0 F3150 X124.536 Y122.415
G1 F900 X140.655 Y138.534 E42.46002
G1 X140.743 Y138.622
G0 F3150 X139.948 Y138.534
G1 F900 X123.829 Y122.415 E43.18139
G1 X123.741 Y122.327
G0 F3150 X123.122 Y122.415
G1 F900 X139.241 Y138.534 E43.90276
G1 X139.329 Y138.622
G0 F3150 X138.534 Y138.534
G1 F900 X122.414 Y122.414 E44.62417
G1 X122.326 Y122.326
G0 F3150 X122.414 Y123.121
G1 F900 X137.827 Y138.534 E45.31394
G1 X137.915 Y138.622
G0 F3150 X137.12 Y138.534
G1 F900 X122.414 Y123.828 E45.97207
G1 X122.326 Y123.74
G0 F3150 X122.414 Y124.535
G1 F900 X136.412 Y138.534 E46.59854
G1 X136.5 Y138.622
G0 F3150 X135.705 Y138.534
G1 F900 X122.414 Y125.242 E47.19337
G1 X122.326 Y125.154
G0 F3150 X122.414 Y125.949
G1 F900 X134.998 Y138.534 E47.75656
G1 X135.086 Y138.622
G0 F3150 X134.291 Y138.534
G1 F900 X122.414 Y126.656 E48.28811
G1 X122.326 Y126.568
G0 F3150 X122.414 Y127.364
G1 F900 X133.584 Y138.534 E48.78799
G1 X133.672 Y138.622
G0 F3150 X132.877 Y138.534
G1 F900 X122.414 Y128.071 E49.25624
G1 X122.326 Y127.983
G0 F3150 X122.414 Y128.778
G1 F900 X132.17 Y138.534 E49.69284
G1 X132.258 Y138.622
G0 F3150 X131.463 Y138.534
G1 F900 X122.414 Y129.485 E50.09781
G1 X122.326 Y129.397
G0 F3150 X122.414 Y130.192
G1 F900 X130.756 Y138.534 E50.47114
G1 X130.844 Y138.622
G0 F3150 X130.048 Y138.534
G1 F900 X122.414 Y130.899 E50.8128
G1 X122.326 Y130.811
G0 F3150 X122.414 Y131.606
G1 F900 X129.341 Y138.534 E51.12282
G1 X129.429 Y138.622
G0 F3150 X128.634 Y138.534
G1 F900 X122.414 Y132.313 E51.40121
G1 X122.326 Y132.225
G0 F3150 X122.414 Y133.02
G1 F900 X127.927 Y138.534 E51.64795
G1 X128.015 Y138.622
G0 F3150 X127.22 Y138.534
G1 F900 X122.414 Y133.728 E51.86303
G1 X122.326 Y133.64
G0 F3150 X122.414 Y134.435
G1 F900 X126.513 Y138.534 E52.04647
G1 X126.601 Y138.622
G0 F3150 X125.806 Y138.534
G1 F900 X122.414 Y135.142 E52.19827
G1 X122.326 Y135.054
G0 F3150 X122.414 Y135.849
G1 F900 X125.099 Y138.534 E52.31843
G1 X125.187 Y138.622
G0 F3150 X124.392 Y138.534
G1 F900 X122.414 Y136.556 E52.40695
G1 X122.326 Y136.468
G0 F3150 X122.414 Y137.263
G1 F900 X123.684 Y138.534 E52.46381
G1 X123.772 Y138.622
G0 F3150 X122.977 Y138.534
G1 F900 X122.414 Y137.97 E52.48903
G0 F3150 X125.95 Y122.415
G1 F900 X157.584 Y154.048 E53.90471
G1 X157.672 Y154.136
G0 F3150 X157.584 Y153.341
G1 F900 X126.657 Y122.415 E55.28875
G1 X126.569 Y122.327
G0 F3150 X127.364 Y122.415
G1 F900 X157.584 Y152.634 E56.64115
G1 X157.672 Y152.722
G0 F3150 X157.584 Y151.927
G1 F900 X128.071 Y122.415 E57.96191
G1 X127.983 Y122.327
G0 F3150 X128.778 Y122.415
G1 F900 X157.584 Y151.22 E59.25103
G1 X157.672 Y151.308
G0 F3150 X157.584 Y150.513
G1 F900 X129.486 Y122.415 E60.50849
G1 X129.398 Y122.327
G0 F3150 X130.193 Y122.415
G1 F900 X157.584 Y149.806 E61.7343
G1 X157.672 Y149.894
G0 F3150 X157.584 Y149.099
G1 F900 X130.9 Y122.415 E62.92848
G1 X130.812 Y122.327
G0 F3150 X131.607 Y122.415
G1 F900 X157.584 Y148.392 E64.09102
G1 X157.672 Y148.48
G0 F3150 X157.584 Y147.684
G1 F900 X132.314 Y122.415 E65.22189
G1 X132.226 Y122.327
G0 F3150 X133.021 Y122.415
G1 F900 X157.584 Y146.977 E66.32113
G1 X157.672 Y147.065
G0 F3150 X157.584 Y146.27
G1 F900 X133.728 Y122.415 E67.38872
G1 X133.64 Y122.327
G0 F3150 X134.435 Y122.415
G1 F900 X157.584 Y145.563 E68.42468
G1 X157.672 Y145.651
G0 F3150 X157.584 Y144.856
G1 F900 X135.142 Y122.415 E69.42899
G1 X135.054 Y122.327
G0 F3150 X135.85 Y122.415
G1 F900 X157.584 Y144.149 E70.40165
G1 X157.672 Y144.237
G0 F3150 X157.584 Y143.442
G1 F900 X136.557 Y122.415 E71.34266
G1 X136.469 Y122.327
G0 F3150 X137.264 Y122.415
G1 F900 X157.584 Y142.735 E72.25203
G1 X157.672 Y142.823
G0 F3150 X157.584 Y142.028
G1 F900 X137.971 Y122.415 E73.12976
G1 X137.883 Y122.327
G0 F3150 X138.678 Y122.415
G1 F900 X157.584 Y141.32 E73.97583
G1 X157.672 Y141.408
G0 F3150 X157.584 Y140.613
G1 F900 X139.385 Y122.415 E74.79026
G1 X139.297 Y122.327
G0 F3150 X140.092 Y122.415
G1 F900 X157.584 Y139.906 E75.57305
G1 X157.672 Y139.994
G0 F3150 X157.584 Y139.199
G1 F900 X140.799 Y122.415 E76.3242
G1 X140.711 Y122.327
G0 F3150 X141.506 Y122.415
G1 F900 X157.584 Y138.492 E77.04371
G1 X157.672 Y138.58
G0 F3150 X157.584 Y137.785
G1 F900 X142.214 Y122.415 E77.73156
G1 X142.126 Y122.327
G0 F3150 X142.921 Y122.415
G1 F900 X157.584 Y137.078 E78.38776
G1 X157.672 Y137.166
G0 F3150 X157.584 Y136.371
G1 F900 X143.628 Y122.415 E79.01233
G1 X143.54 Y122.327
G0 F3150 X144.335 Y122.415
G1 F900 X157.584 Y135.664 E79.60526
G1 X157.672 Y135.752
G0 F3150 X157.584 Y134.956
G1 F900 X145.042 Y122.415 E80.16652
G1 X144.954 Y122.327
G0 F3150 X145.749 Y122.415
G1 F900 X157.584 Y134.249 E80.69615
G1 X157.672 Y134.337
G0 F3150 X157.584 Y133.542
G1 F900 X146.456 Y122.415 E81.19413
G1 X146.368 Y122.327
G0 F3150 X147.163 Y122.415
G1 F900 X157.584 Y132.835 E81.66047
G1 X157.672 Y132.923
G0 F3150 X157.584 Y132.128
G1 F900 X147.87 Y122.415 E82.09518
G1 X147.782 Y122.327
G0 F3150 X148.577 Y122.415
G1 F900 X157.584 Y131.421 E82.49824
G1 X157.672 Y131.509
G0 F3150 X157.584 Y130.714
G1 F900 X149.285 Y122.415 E82.86964
G1 X149.197 Y122.327
G0 F3150 X149.992 Y122.415
G1 F900 X157.584 Y130.007 E83.20941
G1 X157.672 Y130.095
G0 F3150 X157.584 Y129.3
G1 F900 X150.699 Y122.415 E83.51753
G1 X150.611 Y122.327
G0 F3150 X151.406 Y122.415
G1 F900 X157.584 Y128.593 E83.79401
G1 X157.672 Y128.681
G0 F3150 X157.584 Y127.885
G1 F900 X152.113 Y122.415 E84.03883
G1 X152.025 Y122.327
G0 F3150 X152.82 Y122.415
G1 F900 X157.584 Y127.178 E84.25201
G1 X157.672 Y127.266
G0 F3150 X157.584 Y126.471
G1 F900 X153.527 Y122.415 E84.43354
G1 X153.439 Y122.327
G0 F3150 X154.234 Y122.415
M104 S230
G1 F900 X157.584 Y125.764 E84.58344
G1 X157.672 Y125.852
G0 F3150 X157.584 Y125.057
